X: 1
T:Phelim Brady, the Bard of Armagh
M:3/4
L:1/8
Q:80
C:The Streets of Laredo
S:Air
K:HP
|: a2|
{g}a4g{a}f|
g2{ag}a2g2|  !
{a}f4{g}ed|
{gcd}c2{d}A2{e}A2|
{Gdc}d4{g}cd|  !
{g}e2f2g2|
{a}f2{g}e2{Gdc}d2|
{gef}e4{g}A2|  !
a4g{a}f|
g2{ag}a2g2|
{a}f4{g}ed|  !
{gcd}c2{d}A2{e}A2|
{Gdc}d4{g}cd|
{g}e2f2g2|  !
{a}f2{g}c2e2|
{Gdc}d4:|
